images_sukapura_svg/cmd/32/strikeout.svg

<svg viewBox="0 0 32 32" xmlns="http://www.w3.org/2000/svg"><g fill="#69696e"><path d="m10.957031 5.640625v8.359375h1.941407v-.376953c.559357-1.188635 1.478281-1.783203 2.757812-1.783203.9579 0 1.692711.359905 2.203125 1.080078.214563.30274.373679.671076.498047 1.080078h1.986328c-.191811-.874443-.501941-1.633764-.964844-2.244141-.7831-1.041804-1.862815-1.5625-3.240234-1.5625-1.377418 0-2.457135.485148-3.240234 1.457032v-6.009766zm-6.2890622 4.552734c-.8250527 0-1.5831855.153291-2.2753907.460938-.6852132.307647-1.2311844.728377-1.63671872 1.259765-.39854237.524398-.59765625 1.068417-.59765626 1.634766h1.95117188c0-.49643.2346629-.91798.703125-1.267578.4684621-.349599 1.0480292-.525391 1.7402344-.525391.7900927 0 1.3874344.203841 1.7929687.609375.4055344.398543.609375.93506.609375 1.613282v.021484h1.9394531v-.125c-.0279679-1.146683-.4111948-2.04506-1.1523437-2.695312-.7411489-.657247-1.7667201-.986329-3.0742187-.986329zm21.8710932 0c-1.034811 0-1.933187.237437-2.695312.712891-.755133.475454-1.336654 1.143894-1.742188 2.003906-.161199.341855-.279997.709294-.376953 1.089844h1.966797c.13322-.440701.310946-.827988.550782-1.142578.545373-.713181 1.311007-1.070313 2.296874-1.070313.734158 0 1.349274.237437 1.845704.712891.430432.400539.687546.905066.791015 1.5h1.841797c-.114021-1.073699-.538684-1.968748-1.310547-2.664062-.839036-.762126-1.895429-1.142579-3.167969-1.142579zm-26.539062 7.69336c-.04130474.229461-.07226563.46475-.07226563.71875 0 .971884.35713142 1.77584 1.07031251 2.412109.72017302.629277 1.63909702.94336 2.75781252.94336 1.2515628 0 2.3285044-.469326 3.2304687-1.40625.0699198.573341.161566.973522.2734375 1.197265h2.0332032v-.167969c-.2656949-.615293-.3984376-1.444524-.3984376-2.486328v-1.097656h-1.9394531v.572266c-.244719.503422-.6401731.913877-1.1855469 1.228515-.5453738.314639-1.1221672.470703-1.7304687.470703-.6362694 0-1.1569657-.171065-1.5625-.513672-.4055343-.342605-.609375-.817479-.609375-1.425781 0-.118291.0218736-.223786.0390625-.332031h-1.90625zm10.957031.113281v3.751953h1.783203l.09375-1.3125c.783101 1.013836 1.892818 1.521484 3.326172 1.521485 1.342459 0 2.4119-.525423 3.208985-1.574219.497132-.658483.820828-1.464739 1.007812-2.386719h-1.986328c-.128804.485229-.30499.903135-.542969 1.234375-.517405.720173-1.239989 1.080078-2.169922 1.080078-1.258554 0-2.18498-.594568-2.779296-1.783203v-.53125zm10.746094 0c.212047.950173.582481 1.768933 1.154297 2.419922.915948 1.02782 2.146181 1.541016 3.691406 1.541016.769117 0 1.496428-.175792 2.181641-.525391.692205-.349599 1.245676-.816972 1.658203-1.404297.412526-.587326.634962-1.207169.669922-1.857422h-1.833985c-.055935.629278-.343922 1.154701-.861328 1.574219s-1.122248.628906-1.814453.628906c-.999851 0-1.768259-.352405-2.30664-1.058594-.274681-.360294-.476529-.801301-.611329-1.318359z"/><rect height="2" opacity=".99" ry=".864407" width="31.999996" y="15"/></g></svg>

<?xml version="1.0" encoding="UTF-8" standalone="no"?>
<svg
   xmlns:dc="http://purl.org/dc/elements/1.1/"
   xmlns:cc="http://creativecommons.org/ns#"
   xmlns:rdf="http://www.w3.org/1999/02/22-rdf-syntax-ns#"
   xmlns:svg="http://www.w3.org/2000/svg"
   xmlns="http://www.w3.org/2000/svg"
   xmlns:sodipodi="http://sodipodi.sourceforge.net/DTD/sodipodi-0.dtd"
   xmlns:inkscape="http://www.inkscape.org/namespaces/inkscape"
   viewBox="0 0 32 32"
   version="1.1"
   id="svg12"
   sodipodi:docname="strikeout.svg"
   inkscape:version="0.92.3 (2405546, 2018-03-11)">
  <metadata
     id="metadata18">
    <rdf:RDF>
      <cc:Work
         rdf:about="">
        <dc:format>image/svg+xml</dc:format>
        <dc:type
           rdf:resource="http://purl.org/dc/dcmitype/StillImage" />
        <dc:title></dc:title>
      </cc:Work>
    </rdf:RDF>
  </metadata>
  <defs
     id="defs16" />
  <sodipodi:namedview
     pagecolor="#ffffff"
     bordercolor="#666666"
     borderopacity="1"
     objecttolerance="10"
     gridtolerance="10"
     guidetolerance="10"
     inkscape:pageopacity="0"
     inkscape:pageshadow="2"
     inkscape:window-width="1366"
     inkscape:window-height="692"
     id="namedview14"
     showgrid="true"
     inkscape:zoom="14.75"
     inkscape:cx="5.5117119"
     inkscape:cy="22.279625"
     inkscape:window-x="0"
     inkscape:window-y="0"
     inkscape:window-maximized="1"
     inkscape:current-layer="svg12">
    <inkscape:grid
       type="xygrid"
       id="grid828" />
  </sodipodi:namedview>
  <path
     style="font-style:normal;font-variant:normal;font-weight:normal;font-stretch:normal;font-size:medium;line-height:1.25;font-family:Roboto;-inkscape-font-specification:Roboto;letter-spacing:-1px;word-spacing:0px;fill:#69696e;fill-opacity:1;stroke:none;stroke-width:0.53698337"
     d="M 10.957031 5.640625 L 10.957031 14 L 12.898438 14 L 12.898438 13.623047 C 13.457795 12.434412 14.376719 11.839844 15.65625 11.839844 C 16.61415 11.839844 17.348961 12.199749 17.859375 12.919922 C 18.073938 13.222662 18.233054 13.590998 18.357422 14 L 20.34375 14 C 20.151939 13.125557 19.841809 12.366236 19.378906 11.755859 C 18.595806 10.714055 17.516091 10.193359 16.138672 10.193359 C 14.761254 10.193359 13.681537 10.678507 12.898438 11.650391 L 12.898438 5.640625 L 10.957031 5.640625 z M 4.6679688 10.193359 C 3.8429161 10.193359 3.0847833 10.34665 2.3925781 10.654297 C 1.7073649 10.961944 1.1613937 11.382674 0.75585938 11.914062 C 0.35731701 12.43846 0.15820313 12.982479 0.15820312 13.548828 L 2.109375 13.548828 C 2.109375 13.052398 2.3440379 12.630848 2.8125 12.28125 C 3.2809621 11.931651 3.8605292 11.755859 4.5527344 11.755859 C 5.3428271 11.755859 5.9401688 11.9597 6.3457031 12.365234 C 6.7512375 12.763777 6.9550781 13.300294 6.9550781 13.978516 L 6.9550781 14 L 8.8945312 14 L 8.8945312 13.875 C 8.8665633 12.728317 8.4833364 11.82994 7.7421875 11.179688 C 7.0010386 10.522441 5.9754674 10.193359 4.6679688 10.193359 z M 26.539062 10.193359 C 25.504251 10.193359 24.605875 10.430796 23.84375 10.90625 C 23.088617 11.381704 22.507096 12.050144 22.101562 12.910156 C 21.940363 13.252011 21.821565 13.61945 21.724609 14 L 23.691406 14 C 23.824626 13.559299 24.002352 13.172012 24.242188 12.857422 C 24.787561 12.144241 25.553195 11.787109 26.539062 11.787109 C 27.27322 11.787109 27.888336 12.024546 28.384766 12.5 C 28.815198 12.900539 29.072312 13.405066 29.175781 14 L 31.017578 14 C 30.903557 12.926301 30.478894 12.031252 29.707031 11.335938 C 28.867995 10.573812 27.811602 10.193359 26.539062 10.193359 z M 0 17.886719 C -0.041304741 18.11618 -0.072265625 18.351469 -0.072265625 18.605469 C -0.072265625 19.577353 0.28486579 20.381309 0.99804688 21.017578 C 1.7182199 21.646855 2.6371439 21.960938 3.7558594 21.960938 C 5.0074222 21.960938 6.0843638 21.491612 6.9863281 20.554688 C 7.0562479 21.128029 7.1478941 21.52821 7.2597656 21.751953 L 9.2929688 21.751953 L 9.2929688 21.583984 C 9.0272739 20.968691 8.8945312 20.13946 8.8945312 19.097656 L 8.8945312 18 L 6.9550781 18 L 6.9550781 18.572266 C 6.7103591 19.075688 6.314905 19.486143 5.7695312 19.800781 C 5.2241574 20.11542 4.647364 20.271484 4.0390625 20.271484 C 3.4027931 20.271484 2.8820968 20.100419 2.4765625 19.757812 C 2.0710282 19.415207 1.8671875 18.940333 1.8671875 18.332031 C 1.8671875 18.21374 1.8890611 18.108245 1.90625 18 L 0 18 L 0 17.886719 z M 10.957031 18 L 10.957031 21.751953 L 12.740234 21.751953 L 12.833984 20.439453 C 13.617085 21.453289 14.726802 21.960937 16.160156 21.960938 C 17.502615 21.960938 18.572056 21.435515 19.369141 20.386719 C 19.866273 19.728236 20.189969 18.92198 20.376953 18 L 18.390625 18 C 18.261821 18.485229 18.085635 18.903135 17.847656 19.234375 C 17.330251 19.954548 16.607667 20.314453 15.677734 20.314453 C 14.41918 20.314453 13.492754 19.719885 12.898438 18.53125 L 12.898438 18 L 10.957031 18 z M 21.703125 18 C 21.915172 18.950173 22.285606 19.768933 22.857422 20.419922 C 23.77337 21.447742 25.003603 21.960938 26.548828 21.960938 C 27.317945 21.960938 28.045256 21.785146 28.730469 21.435547 C 29.422674 21.085948 29.976145 20.618575 30.388672 20.03125 C 30.801198 19.443924 31.023634 18.824081 31.058594 18.173828 L 29.224609 18.173828 C 29.168674 18.803106 28.880687 19.328529 28.363281 19.748047 C 27.845875 20.167565 27.241033 20.376953 26.548828 20.376953 C 25.548977 20.376953 24.780569 20.024548 24.242188 19.318359 C 23.967507 18.958065 23.765659 18.517058 23.630859 18 L 21.703125 18 z "
     id="path960" />
  <rect
     style="opacity:0.98999999;fill:#69696e;fill-opacity:1"
     id="rect8"
     y="15"
     x="0"
     width="31.999996"
     ry="0.86440676"
     height="2" />
</svg>
